X:239
T:Ewie Wi' the Crooked Horn
R:Strathspey
B:The Athole Collection
M:C
L:1/8
K:G Minor
F|D<G G>A F>GA>F|D<G G>A B>G A<a|f>-e d<f c<f A>F|
A<f d>B c<AG:|
G<g g>a f>ga>f|d<g g>a b>ga>^f|d<g g>a f>ga>f|dg/a/ b>ga>^f g2|
f>=f d<f c<f A>F|D<G G>A B>G A<a|b>gf>d c>BA>F|
A<f d>B c<A G||

